!!!!SEGMENT: pl-wumfc--n68232--001-009_moniuszko-stanislaw--paria-wyciag-fortepianowy-akt-i-obraz-ii-scena-i-chor-braminow.krn
!!!cenid: 18xx:4139
!!!COM: Moniuszko, Stanisław
!!!COM-rismID: pe30008351
!!!CDT: 1819/05/05-1872/06/04
!!!CNT: Polish
!!!GTL: Paria – wyciąg fortepianowy
!!!OTL: Akt I. Obraz II. Scena I. Chór Braminów
!!!OMV: 009
!!!PDT:
!!!AGN:
!!!SMS-siglum: PL-Wumfc
!!!SMS-shelfmark: N68232
!!!SMS-shelfwork: 001-009 G
!!!SMS-variant:
!!!SMS-altvar:
!!!NIFC-rismSourceID: 1001171381
!!!NIFC-rismChildID: 1001171381
!!!NIFC-islandoraID: pl-wumfc:7210
!!!URL-pdf-islandora: https://repozytorium.nifc.pl/islandora/object/pl-wumfc%3A7210/datastream/PDF/view
!!!URL-scan: https://polish.musicsources.pl/pl/lokalizacje/galeria/druki-muzyczne/12634/1 @EN{Scan on Polish Music Sources Website} @PL{Skany w portalu Dziedzictwo Muzyki Polskiej w otwartym dostępie}
!!!IIIF:
!!!ONB-nifc: UWAGA: str. 37-38. Uwaga: proszę w pliku umieszczać obsadę, która występuje tylko w danej części.
!!!AIN: 1 bass 2 piano 1 tenor
!!!key:
**kern	**kern	**dynam	**kern	**text	**text	**dynam	**kern	**text	**text	**dynam
*part4	*part3	*part3	*part2	*part2	*part2	*part2	*part1	*part1	*part1	*part1
*staff4	*staff3	*	*staff2	*staff2	*staff2	*	*staff1	*staff1	*staff1	*
*I"Piano	*I"Piano	*	*I"Bassi	*	*	*	*I"Tenori	*	*	*
*I'pf	*I'pf	*	*I'Coro B	*	*	*	*I'Coro T	*	*	*
*ICklav	*ICklav	*	*ICvox	*	*	*	*ICvox	*	*	*
*Ipiano	*Ipiano	*	*Ibass	*	*	*	*Itenor	*	*	*
*clefF4	*clefG2	*	*clefF4	*	*	*	*clefGv2	*	*	*
*k[]	*k[]	*	*k[]	*	*	*	*k[]	*	*	*
*C:	*C:	*	*C:	*	*	*	*C:	*	*	*
*M4/4	*M4/4	*	*M4/4	*	*	*	*M4/4	*	*	*
*met(c)	*met(c)	*	*met(c)	*	*	*	*met(c)	*	*	*
=1	=1	=1	=1	=1	=1	=1	=1	=1	=1	=1
!	!LO:TX:B:t=Moderato.	!LO:DY:a	!	!	!	!	!LO:TX:t=P:problem:klucz wiolinowy dla tenoru	!	!	!
[<1CC	4E</ 4G< 4c<	p	1ryy	.	.	.	1ryy	.	.	.
.	4r<	.	.	.	.	.	.	.	.	.
!	!LO:TX:b:t=Cor. Fag. \ne Q.	!	!	!	!	!	!	!	!	!
.	4.GG</ 4.E<	.	.	.	.	.	.	.	.	.
.	8E</ 8c<	.	.	.	.	.	.	.	.	.
=2	=2	=2	=2	=2	=2	=2	=2	=2	=2	=2
1CC_	2E</ 2G<	.	1ryy	.	.	.	1ryy	.	.	.
.	4.E</ 4.G< 4.c<	.	.	.	.	.	.	.	.	.
.	8G</ 8c 8e	.	.	.	.	.	.	.	.	.
=3	=3	=3	=3	=3	=3	=3	=3	=3	=3	=3
1CC_	4E</ 4G< 4c	<	1ryy	.	.	.	1ryy	.	.	.
.	4G</ 4c 4e	.	.	.	.	.	.	.	.	.
.	4c/ 4e 4g	.	.	.	.	.	.	.	.	.
.	4e/ 4g 4cc	[[	.	.	.	.	.	.	.	.
=4	=4	=4	=4	=4	=4	=4	=4	=4	=4	=4
1CC]	4c/ 4e 4g	.	1ryy	.	.	.	1ryy	.	.	.
.	(8.e\L 8.cc	.	.	.	.	.	.	.	.	.
.	16ee\Jk)	.	.	.	.	.	.	.	.	.
.	4g\ 4cc 4ee	.	.	.	.	.	.	.	.	.
.	4cc\ 4ee 4gg	.	.	.	.	.	.	.	.	.
=5	=5	=5	=5	=5	=5	=5	=5	=5	=5	=5
[1CC [1GG	1ee 1gg [1ccc	.	1ryy	.	.	.	1ryy	.	.	.
=6	=6	=6	=6	=6	=6	=6	=6	=6	=6	=6
*	*^	*	*	*	*	*	*	*	*	*
!	!LO:TX:b:t=Ob. e \nFag.	!	!	!	!	!	!	!	!	!	!
1CC] 1GG]	1ccc]	(2ee\ 2gg	.	1ryy	.	.	.	1ryy	.	.	.
.	.	4.dd\ 4.ff	.	.	.	.	.	.	.	.	.
.	.	8cc\) 8ee	.	.	.	.	.	.	.	.	.
*	*v	*v	*	*	*	*	*	*	*	*	*
=7	=7	=7	=7	=7	=7	=7	=7	=7	=7	=7
[1CC [1GG	2.cc\ 2.ee	.	1ryy	.	.	.	1ryy	.	.	.
.	8.e/L 8.cc	.	.	.	.	.	.	.	.	.
.	16g/Jk	.	.	.	.	.	.	.	.	.
=8	=8	=8	=8	=8	=8	=8	=8	=8	=8	=8
!	!LO:TX:a:t=Cl.	!	!	!	!	!	!	!	!	!
1CC] 1GG]	(2e/ 2g	.	1ryy	.	.	.	1ryy	.	.	.
.	4.d/ 4.f	.	.	.	.	.	.	.	.	.
.	8c/) 8e	.	.	.	.	.	.	.	.	.
!!LO:LB:g=original	!	!	!	!	!	!	!	!	!	!
=9||	=9||	=9||	=9||	=9||	=9||	=9||	=9||	=9||	=9||	=9||
*M2/4	*M2/4	*	*M2/4	*	*	*	*M2/4	*	*	*
!	!	!	!LO:TX:a:t=Bassi.	!	!	!	!LO:TX:a:t=Tenori.	!	!	!
4CC/ 4C	[2c/ [2e	p	2r	.	.	.	2r	.	.	.
8CC'/L 8C	.	.	.	.	.	.	.	.	.	.
8GGG'/J 8GG	.	.	.	.	.	.	.	.	.	.
=10	=10	=10	=10	=10	=10	=10	=10	=10	=10	=10
!LO:TX:b:t=(pizz.)	!LO:TX:b:t=Timp.	!	!	!	!	!	!	!	!	!
4CC'/ 4C	2c/_ 2e_	.	2r	.	.	.	2r	.	.	.
8GGG'/L 8GG	.	.	.	.	.	.	.	.	.	.
8CC'/J 8C	.	.	.	.	.	.	.	.	.	.
!!LO:LB:g=original	!	!	!	!	!	!	!	!	!	!
=11	=11	=11	=11	=11	=11	=11	=11	=11	=11	=11
4GGG/ 4GG	4c/] 4e]	.	2r	.	.	.	2r	.	.	.
8CC'/L 8C	4r	.	.	.	.	.	.	.	.	.
8GGG'/J 8GG	.	.	.	.	.	.	.	.	.	.
=12	=12	=12	=12	=12	=12	=12	=12	=12	=12	=12
4CC'/ 4C	4r	.	4r	.	.	.	2r	.	.	.
*	*clefF4	*	*	*	*	*	*	*	*	*
!	!LO:TX:b:t=Cor. Fag. \ne Q.	!	!	!	!	!	!	!	!	!
8GGG'/L 8GG	8r	.	8r	.	.	.	.	.	.	.
8CC'/J	8E\ 8c	.	8C/	O	O	.	.	.	.	.
=13	=13	=13	=13	=13	=13	=13	=13	=13	=13	=13
4GGG'/ 4GG	4D\ 4F 4B	.	4BB/	Su-	Su-	.	2r	.	.	.
8CC'/L	8C'\L 8F 8A	.	8AA/	-rja	-ria	.	.	.	.	.
8GGG'/J 8GG	8BB'\J 8F 8G	.	8GG/	wspa-	pos-	.	.	.	.	.
=14	=14	=14	=14	=14	=14	=14	=14	=14	=14	=14
4CC'/	4C\ 4E 4G	.	4GG/	-nia-	-sen-	.	2r	.	.	.
8GGG'/L 8GG	8E'\L 8G 8c	.	8C/	-ły!	-te,	.	.	.	.	.
8CC'/J	8E'\J 8G 8c	.	8C/	Ty	deh i-	.	.	.	.	.
=15	=15	=15	=15	=15	=15	=15	=15	=15	=15	=15
4GGG'/ 4GG	4G\ 4B 4d	.	4D\	ciesz	-spi-	.	2r	.	.	.
8CC'/L	8G\L 8A 8c	.	8C/	nas,	-ra-	.	.	.	.	.
8GGG'/J 8GG	8G\J 8B 8d	.	8D\	ty	-ci	.	.	.	.	.
=16	=16	=16	=16	=16	=16	=16	=16	=16	=16	=16
4CC/	4G\ 4c 4e	.	(4E\	pieść.	tu…	.	2r	.	.	.
8GGG'/L 8GG	8E'\L 8G 8c	.	8C/)	.	.	.	.	.	.	.
8CC'/J	8E'\J 8G 8c	.	8C/	Do	O	.	.	.	.	.
!!LO:LB:g=original	!	!	!	!	!	!	!	!	!	!
=17	=17	=17	=17	=17	=17	=17	=17	=17	=17	=17
4GGG/ 4GG	4D\ 4F 4B	.	4BB/	szczę-	nu-	.	2r	.	.	.
8CC'/L	8D\L 8F 8A	.	8AA/	-ścia,	-me	.	.	.	.	.
8GGG'/J 8GG	8D\J 8F 8G	.	8GG/	do	splen-	.	.	.	.	.
=18	=18	=18	=18	=18	=18	=18	=18	=18	=18	=18
4CC/	4C\ 4E 4G	.	(4GG/	chwa-	-den-	.	2r	.	.	.
8AAA/L	8E\L 8A 8c	.	8C/)	-ły	-te	.	.	.	.	.
8CC'/J	8E\J 8A 8c	.	8C/	Racz	c’in-	.	.	.	.	.
=19	=19	=19	=19	=19	=19	=19	=19	=19	=19	=19
4GGG/ 4GG	4G\ 4B 4d	>	4D\	świa-	-fon-	.	2r	.	.	.
8EE'/L	8G\L 8B 8e	.	8E\	-tło	-di	.	.	.	.	.
8GGG'/J 8GG	8D\J 8F 8G 8B	]]	8BB/	nam	vir-	.	.	.	.	.
=20	=20	=20	=20	=20	=20	=20	=20	=20	=20	=20
*^	*	*	*	*	*	*	*	*	*	*
!	!	!LO:TX:b:t=Cl. bas. e Tuba	!	!	!	!	!	!	!	!	!
[2GG/	4CC\	[2C\ [2E [2G [2c	.	[2C/	nieść!	-tù!	.	2r	.	.	.
.	8CC'\L	.	.	.	.	.	.	.	.	.	.
.	8GGG'\J	.	.	.	.	.	.	.	.	.	.
=21	=21	=21	=21	=21	=21	=21	=21	=21	=21	=21	=21
2GG/_	4CC\	2C\_ 2E_ 2G_ 2c_	.	2C/_	.	.	.	2r	.	.	.
.	8GGG'\L	.	.	.	.	.	.	.	.	.	.
.	8CC'\J	.	.	.	.	.	.	.	.	.	.
=22	=22	=22	=22	=22	=22	=22	=22	=22	=22	=22	=22
4GG/]	4GGG\	2C\_ 2E_ 2G_ 2c_	.	4C/]	.	.	.	2r	.	.	.
8CC'/L	4ryy	.	.	4r	.	.	.	.	.	.	.
8GGG'/J 8GG	.	.	.	.	.	.	.	.	.	.	.
*v	*v	*	*	*	*	*	*	*	*	*	*
=23	=23	=23	=23	=23	=23	=23	=23	=23	=23	=23
4CC/	4.C\] 4.E] 4.G] 4.c]	.	4r	.	.	.	4r	.	.	.
8GGG'/L 8GG	.	.	8r	.	.	.	8r	.	.	.
*	*clefG2	*	*	*	*	*	*	*	*	*
!	!LO:TX:a:t=Cl. e Cl. bas.	!	!	!	!	!	!	!	!	!
8CC'/J	8c'/ 8e 8cc	.	8C\ 8E	O	O	.	8c\	O	O	.
=24	=24	=24	=24	=24	=24	=24	=24	=24	=24	=24
4GGG/ 4GG	4d/ 4f 4g 4b	.	4.D\ 4.F	Su-	Su-	.	4B\	Su-	Su-	.
8CC/L	8c'/L 8d 8f 8a	.	.	.	.	.	8A/	-rja	-ria	.
8GGG/J 8GG	8B'/J 8d 8f 8g	.	8D\ 8F	-ri-	-ri-	.	8G/	wspa-	pos-	.
!!LO:PB:g=original	!	!	!	!	!	!	!	!	!	!
=25	=25	=25	=25	=25	=25	=25	=25	=25	=25	=25
*	*	*	*^	*	*	*	*	*	*	*
4CC/	4c/ 4e 4g	.	4.C/ 4.E	4.ryy	-a!	-a!	.	4G/	-nia-	-sen-	.
8GGG'/L 8GG	8c'/L 8e 8g 8cc	.	.	.	.	.	.	8c\	-ły!	-te,	.
8CC'/J	8e'/J 8g 8cc	.	8G/	8G\	Ty	pos-	.	8c\	Ty	deh i-	.
=26	=26	=26	=26	=26	=26	=26	=26	=26	=26	=26	=26
4GGG/ 4GG	4d/ 4g 4b 4dd	.	4.G/	4.G\	ciesz,	-sen-	.	4B\ 4d	ciesz	-spi-	.
8CC'/L	8e/L 8g 8a 8cc	.	.	.	.	.	.	8A\ 8c	nas,	-ra-	.
8GGG'/J 8GG	8g/J 8b 8dd	.	8G/	8G\	ty	-te	.	8B\ 8d	ty	-ci	.
*	*	*	*v	*v	*	*	*	*	*	*	*
=27	=27	=27	=27	=27	=27	=27	=27	=27	=27	=27
*	*	*	*	*	*	*	*^	*	*	*
4CC/	(>4e/ 4g 4cc 4ee	.	((4C\ 4G	pieść	deh…	.	((4c/ 4e	4ryy	pieść.	tu…	.
8GGG'/L 8GG	8e/L) 8g 8cc	.	8C/)) 8E	.	.	.	8c/))	8c\	.	.	.
8CC'/J	8c/J 8e 8g 8cc	.	8C/ 8E	Do	i-	.	8rayy	8c\	Do	O	.
*	*	*	*	*	*	*	*v	*v	*	*	*
=28	=28	=28	=28	=28	=28	=28	=28	=28	=28	=28
4GGG/ 4GG	4d^/ 4f 4g 4b	.	4.D\ 4.F	szczę-	-spi-	.	4B\	szczę-	nu-	.
8CC/L	8c/L 8d 8f 8a	.	.	.	.	.	8A/	-ścia,	-me	.
8GGG'/J 8GG	8B/J 8d 8f 8g	.	8D\ 8F	-ścia,	-ra-	.	8G/	do	splen-	.
=29	=29	=29	=29	=29	=29	=29	=29	=29	=29	=29
*	*	*	*^	*	*	*	*^	*	*	*
4CC/	4c/ 4e 4g	.	4.C/ 4.E	4.ryy	Racz	-ci,	.	((4G/	4G\	chwa-	-den-	.
8AAA'/L 8AA	8c/L 8e 8a 8cc	.	.	.	.	.	.	8c/))	8c\	-ły	-te	.
8CC'/J	8e/J 8a 8cc	.	8A/	8A\	nam	c’in-	.	8c/	8c\	Racz	c’in-	.
*	*	*	*	*	*	*	*	*v	*v	*	*	*
=30	=30	=30	=30	=30	=30	=30	=30	=30	=30	=30	=30
4GG/	4g\ 4b 4dd	.	((4G/	4G\	świa-	-fon-	.	4B\ 4d	świa-	-fon-	.
8EE'/L	8g/L 8b 8ee	.	8E\)) 8G	4ryy	.	-di	.	8B\ 8e	-tło	-di	.
8GG'/J	8d/J 8f 8g 8b	.	8D\ 8F	.	-tło	vir-	.	8G/ 8B	nam	vir-	.
*	*	*	*v	*v	*	*	*	*	*	*	*
=31	=31	=31	=31	=31	=31	=31	=31	=31	=31	=31
4CC/	[2c/ [2e [2g [2cc	.	[2C/ [2E	nieść!	-tù…	.	[2G/ [2c	nieść!	-tù.	.
8C/L	.	.	.	.	.	.	.	.	.	.
8CC/J	.	.	.	.	.	.	.	.	.	.
=32	=32	=32	=32	=32	=32	=32	=32	=32	=32	=32
4C/	4c/] 4e] 4g] 4cc]	.	4C/] 4E]	.	.	.	4G/] 4c]	.	.	.
8CC'/L	8r	.	4r	.	.	.	4r	.	.	.
8C'/J	8c/	f	.	.	.	.	.	.	.	.
!!LO:LB:g=original	!	!	!	!	!	!	!	!	!	!
=33	=33	=33	=33	=33	=33	=33	=33	=33	=33	=33
*^	*	*	*	*	*	*	*	*	*	*
!	!	!LO:TX:a:t=Cl.	!	!	!	!	!	!	!	!	!
!LO:TX:b:t=Tam. tam.	!	!	!	!	!	!	!	!	!	!	!
[2FF/	4FFF\ 4FF	[2F^/	.	2r	.	.	.	2r	.	.	.
.	8CC'\L	.	.	.	.	.	.	.	.	.	.
.	8FFF'\J	.	.	.	.	.	.	.	.	.	.
=34	=34	=34	=34	=34	=34	=34	=34	=34	=34	=34	=34
2FF/]	4CC\	4.F/]	.	4.r	.	.	.	4.r	.	.	.
.	8FFF'\L	.	.	.	.	.	.	.	.	.	.
!	!	!LO:TX:a:t=Cor.	!	!	!	!	!LO:DY:a	!	!	!	!LO:DY:a
.	8CC'\J	8A/ 8c 8f	p	8C\ 8A	.	.	f	8c\ 8f	On	Fat-	f
*v	*v	*	*	*	*	*	*	*	*	*	*
=35	=35	=35	=35	=35	=35	=35	=35	=35	=35	=35
*	*	*	*	*	*	*	*^	*	*	*
4CC/	4G/ 4c 4e	.	4C\ 4G	.	.	.	4c\ 4e	4.ryy	daw-	-tor	.
8C'<\L	8F<'>/L 8G< 8d	.	8C\ 8F	.	.	.	8G\ 8d	.	-ca	del-	.
8CC'<\J	8E<'>/J 8G< 8c	.	8C\ 8E	.	.	.	8c/	8c\	o-	-le	.
=36	=36	=36	=36	=36	=36	=36	=36	=36	=36	=36	=36
!	!LO:TX:a:t=Fl. Cl.	!	!	!	!	!	!	!	!	!	!
4C/	4g\ 4ee	.	((4C\ 4G	.	.	.	((4c\ 4e	4.ryy	-broń-	ter-	.
8CC'/L	8f/L 8g 8dd	.	8C\)) 8F	.	.	.	8G\)) 8d	.	.	-re e	.
8C'/J	8e/J 8g 8cc	.	8C\ 8E	.	.	.	8c/	8c\	-ca	del	.
*	*	*	*	*	*	*	*v	*v	*	*	*
=37	=37	=37	=37	=37	=37	=37	=37	=37	=37	=37
*^	*	*	*	*	*	*	*	*	*	*
[2FF/	4FFF\ 4FF	[2c/ [2f [2a [2cc	sff >	[2C\ [2F	.	.	.	[2A\ [2c	on!	ciel	.
.	8CC'\L	.	.	.	.	.	.	.	.	.	.
.	8FFF'\J	.	]]	.	.	.	.	.	.	.	.
=38	=38	=38	=38	=38	=38	=38	=38	=38	=38	=38	=38
2FF/]	4CC\	4c/] 4f] 4a] 4cc]	.	4C\] 4F]	.	.	.	4A\] 4c]	.	.	.
.	8FFF'\L	8r	.	8r	.	.	.	8r	.	.	.
!	!	!	!	!	!	!	!LO:DY:a	!	!	!	!LO:DY:a
.	8CC'\J	8c/ 8f 8a	p	8C\ 8A	.	.	f	8c\ 8f	O-	Tua	f
*v	*v	*	*	*	*	*	*	*	*	*	*
=39	=39	=39	=39	=39	=39	=39	=39	=39	=39	=39
*	*	*	*	*	*	*	*^	*	*	*
4CC'/	4c/ 4e 4g	.	4C\ 4G	.	.	.	4c\ 4e	4.ryy	-ży-	vo-	.
8C'/L	8G/L 8d 8f	.	8C\ 8F	.	.	.	8G\ 8d	.	-wia	-ce ar-	.
8CC'/J	8G/J 8c 8e	.	8C\ 8E	.	.	.	8c/	8c\	świat	-bi-	.
*	*	*	*	*	*	*	*v	*v	*	*	*
!!LO:LB:g=original	!	!	!	!	!	!	!	!	!	!
=40	=40	=40	=40	=40	=40	=40	=40	=40	=40	=40
4C'/	4g\ 4cc 4ee	.	4E\	.	.	.	4e\	ca-	-tran-	.
8CC'/L	8f'/L 8g 8dd	.	8D\	.	.	.	8d\	-ły!	-te,	.
8C'/J	8e'/J 8g 8cc	.	8C/	.	.	.	8c\	Wi-	dal	.
=41	=41	=41	=41	=41	=41	=41	=41	=41	=41	=41
*^	*	*	*	*	*	*	*	*	*	*
8rA	2CC\ 2GG	8g\ 8gg	fp	[2GG/ [2G	.	.	.	[2G\ [2g	-taj-	tro-	.
!	!	!LO:TX:a:t=Ob.	!	!	!	!	!	!	!	!	!
8B/L	.	16dd\LL	.	.	.	.	.	.	.	.	.
.	.	16ff\JJ	.	.	.	.	.	.	.	.	.
8C/ 8A	.	(16gg\LL	.	.	.	.	.	.	.	.	.
.	.	16ff\)	.	.	.	.	.	.	.	.	.
8C/J 8G	.	16dd'\	.	.	.	.	.	.	.	.	.
.	.	16ff'\JJ	.	.	.	.	.	.	.	.	.
*v	*v	*	*	*	*	*	*	*	*	*	*
=42	=42	=42	=42	=42	=42	=42	=42	=42	=42	=42
*	*8va	*	*	*	*	*	*	*	*	*
!	!	!	!	!	!	!LO:DY:a	!	!	!	!LO:DY:a
4C\ 4E 4G	8gg\ 8ggg	.	2GG/_ 2G_	.	.	>	2G\_ 2g_	.	.	>
.	16ggg'\LL	.	.	.	.	.	.	.	.	.
!	!LO:TX:a:t=Picc.	!	!	!	!	!	!	!	!	!
.	16eee'\JJ	.	.	.	.	.	.	.	.	.
8C\L 8E 8G 8c	(16ddd\LL	.	.	.	.	.	.	.	.	.
.	16ccc\)	.	.	.	.	.	.	.	.	.
8C\J 8E 8G 8c	16bb'\	.	.	.	.	.	.	.	.	.
.	16aa'\JJ	.	.	.	.	]]	.	.	.	]]
=43	=43	=43	=43	=43	=43	=43	=43	=43	=43	=43
*^	*^	*	*	*	*	*	*	*	*	*
4ryy	2CC/ 2GG	8gg/	4dd\	.	2GG/_ 2G_	.	.	.	2G\_ 2g_	.	.	.
!	!	!LO:TX:a:t=Fl.	!	!	!	!	!	!	!	!	!	!
.	.	16aa'/LL	.	.	.	.	.	.	.	.	.	.
.	.	16bb'/JJ	.	.	.	.	.	.	.	.	.	.
8G\L 8A 8c	.	(16ccc/LL	4ryy	.	.	.	.	.	.	.	.	.
.	.	16bb/)	.	.	.	.	.	.	.	.	.	.
8G\J 8B 8d	.	16aa'/	.	.	.	.	.	.	.	.	.	.
.	.	16gg'/JJ	.	.	.	.	.	.	.	.	.	.
*v	*v	*	*	*	*	*	*	*	*	*	*	*
=44	=44	=44	=44	=44	=44	=44	=44	=44	=44	=44	=44
*	*	*	*	*^	*	*	*	*^	*	*	*
4G\ 4c 4e	8ryy	2ccc\	.	4GG/] 4G]	4ryy	.	.	.	4G\] 4g]	4.ryy	.	.	.
.	16ggg/LL	.	.	.	.	.	.	.	.	.	.	.	.
!	!LO:TX:b:t=Picc.	!	!	!	!	!	!	!	!	!	!	!	!
.	16aaa/JJ	.	.	.	.	.	.	.	.	.	.	.	.
8E\L 8G 8c	(16ggg/LL	.	.	8E/	8E\	.	.	.	8E/ 8e	.	-my!	-no	.
.	16fff/)	.	.	.	.	.	.	.	.	.	.	.	.
8C\J 8E 8G 8c	16eee'/	.	.	8C/	8C\	.	.	.	8c/	8c\	wi-	rag-	.
.	16fff'/JJ	.	.	.	.	.	.	.	.	.	.	.	.
*	*v	*v	*	*	*	*	*	*	*v	*v	*	*	*
*	*	*	*v	*v	*	*	*	*	*	*	*
!!LO:LB:g=original	!	!	!	!	!	!	!	!	!	!
=45	=45	=45	=45	=45	=45	=45	=45	=45	=45	=45
4GG\ 4D 4B	8ggg'\L	.	4G\	.	.	.	4B\	-taj-	-gian-	.
.	16bb'\L 16ddd	.	.	.	.	.	.	.	.	.
.	16ccc'\JJ 16eee	.	.	.	.	.	.	.	.	.
8D\L 8F 8A	16ddd'\LL 16fff	.	8F\	.	.	.	8A/	-my	-te	.
.	16eee'\ 16ggg	.	.	.	.	.	.	.	.	.
8GG\J 8D 8G	16fff'\ 16aaa	.	8D\	.	.	.	8G/	wschód	fa-	.
.	16ddd'\JJ 16bbb	.	.	.	.	.	.	.	.	.
=46	=46	=46	=46	=46	=46	=46	=46	=46	=46	=46
*^	*	*	*	*	*	*	*	*	*	*
4C\ 4E 4G	4ryy	8eee'\ 8cccc	.	4E\	.	.	.	4G/	słoń-	-vel-	.
*	*	*X8va	*	*	*	*	*	*	*	*	*
!	!	!LO:TX:a:t=Ob.	!	!	!	!	!	!	!	!	!
.	.	16ggg'\LL	.	.	.	.	.	.	.	.	.
.	.	16ee'\JJ	.	.	.	.	.	.	.	.	.
.	.	8qee/	.	.	.	.	.	.	.	.	.
8c/L	4AA\ 4E	(16dd\LL	.	8C/	.	.	.	8c\	-ca	-li	.
.	.	16cc\)	.	.	.	.	.	.	.	.	.
8c/J	.	16ee'\	.	8C/	.	.	.	8c\	Skła-	fa-	.
.	.	16aa'\JJ	.	.	.	.	.	.	.	.	.
*v	*v	*	*	*	*	*	*	*	*	*	*
=47	=47	=47	=47	=47	=47	=47	=47	=47	=47	=47
4GG/ 4BB 4D 4G	8gg'\	.	2G\	.	.	.	2B\ 2d	-daj-	-vel-	.
*	*8va	*	*	*	*	*	*	*	*	*
!	!LO:TX:a:t=Picc.	!	!	!	!	!	!	!	!	!
.	16ddd'\LL	.	.	.	.	.	.	.	.	.
.	16fff'\JJ	.	.	.	.	.	.	.	.	.
4G\ 4B	(16aaa\LL	.	.	.	.	.	.	.	.	.
.	16ggg\)	.	.	.	.	.	.	.	.	.
.	16ddd\	.	.	.	.	.	.	.	.	.
.	16fff\JJ	.	.	.	.	.	.	.	.	.
=48	=48	=48	=48	=48	=48	=48	=48	=48	=48	=48
*	*	*	*^	*	*	*	*	*	*	*
4E^\ 4G 4B 4e	(16aaa\LL	.	4E\ 4G	4ryy	.	.	.	4B\ 4e	-my	-li ai	.
.	16ggg\)	.	.	.	.	.	.	.	.	.	.
.	16eee'\	.	.	.	.	.	.	.	.	.	.
.	16fff'\JJ	.	.	.	.	.	.	.	.	.	.
4G^\ 4B 4d	(16ggg\LL	.	4G/	4G\	.	.	.	4G/ 4B	mu	fe-	.
.	16fff\)	.	.	.	.	.	.	.	.	.	.
.	16eee'\	.	.	.	.	.	.	.	.	.	.
.	16ddd'\JJ	.	.	.	.	.	.	.	.	.	.
*	*	*	*v	*v	*	*	*	*	*	*	*
=49	=49	=49	=49	=49	=49	=49	=49	=49	=49	=49
[2CC/ [2GG [2E	8ccc'\L	.	[2C/ [2E	.	.	.	[2G/ [2c	cześć!	-del…	.
.	16cccc'\L	.	.	.	.	.	.	.	.	.
.	16aaa'\JJ	.	.	.	.	.	.	.	.	.
.	16ggg'\LL	.	.	.	.	.	.	.	.	.
.	16fff'\	.	.	.	.	.	.	.	.	.
.	8qfff/	.	.	.	.	.	.	.	.	.
.	16eee'\	.	.	.	.	.	.	.	.	.
.	16ddd'\JJ	.	.	.	.	.	.	.	.	.
!!LO:PB:g=original	!	!	!	!	!	!	!	!	!	!
=50	=50	=50	=50	=50	=50	=50	=50	=50	=50	=50
*	*	*	*^	*	*	*	*^	*	*	*
8CC/] 8GG] 8E]	8ccc/L	.	4C/] 4E]	4.ryy	.	.	.	4G/] 4c]	4.ryy	.	.	.
*	*X8va	*	*	*	*	*	*	*	*	*	*	*
8r	(16gg/L	.	.	.	.	.	.	.	.	.	.	.
.	16e/JJ)	.	.	.	.	.	.	.	.	.	.	.
8CC/L 8C	8c/L	.	8rD	.	.	.	.	8rB	.	.	.	.
!	!	!	!	!	!	!	!LO:DY:a	!	!	!	!	!LO:DY:a
8C/J	8c/J	f	8c/	8c\	.	.	f	8c/	8c\	Już	Dei	f
*	*	*	*v	*v	*	*	*	*	*	*	*	*
=51	=51	=51	=51	=51	=51	=51	=51	=51	=51	=51	=51
4EE/ 4C	4B-X^/ 4c	.	4E\ 4c	.	.	.	4c/	4c\	sied-	sa-	.
8C/L	8B-/L 8g	.	8E\ 8B-X	.	.	.	8c\ 8g	4ryy	-miu	-cri	.
8C/J	8B-/J 8g	.	8E\ 8B-	.	.	.	8c\ 8g	.	ru-	cor-	.
*	*	*	*	*	*	*	*v	*v	*	*	*
=52	=52	=52	=52	=52	=52	=52	=52	=52	=52	=52
4FF/ 4C	4A-X^/ 4c 4g	.	4F\ 4A-X	.	.	.	4c^\ 4g	-ma-	-sier	.
8C/L	8A-/L 8c 8f	.	8F\ 8A-	.	.	.	8c\ 8f	-ków	il	.
8C/J	8A-/J 8c 8f	.	8F\ 8A-	.	.	.	8c\ 8f	na	ni-	.
=53	=53	=53	=53	=53	=53	=53	=53	=53	=53	=53
*	*	*	*^	*	*	*	*	*	*	*
4GG/ 4C	4G^/ 4c 4f	.	4G/	4G\	.	.	.	4c^\ 4f	nie-	-tri-	.
8C/L	8G/L 8c 8e-X	.	8G/	8G\	.	.	.	8c\ 8e-X	-bie,	-to	.
8C/J	8G/J 8c 8e-	.	8G/	8G\	.	.	.	8c\ 8e-	po-	per	.
=54	=54	=54	=54	=54	=54	=54	=54	=54	=54	=54	=54
4AA-X/	4A-X^/ 4c 4e-X	.	4A-X/	4A-\	.	.	.	4c\ 4e-X	-god-	l’a-	.
!	!	!	!	!	!	!	!LO:DY:a	!	!	!	!LO:DY:a
8AA-/L	8A-/L 8B-X 8d-X	.	8A-/	8A-\	.	.	<	8B-X\ 8d-X	-nem	-er	<
8AA-/J	8A-/J 8c 8e-	.	8A-/	8A-\	.	.	[[	8c\ 8e-	za-	si	[[
*	*	*	*v	*v	*	*	*	*	*	*	*
=55	=55	=55	=55	=55	=55	=55	=55	=55	=55	=55
*^	*	*	*	*	*	*	*	*	*	*
!	!	!	!	!	!	!	!LO:DY:a	!	!	!	!LO:DY:a
4DD-X/	2DDD-X\ 2DD-	[2F</ [2A-X< [2c [2f	ff	[2D-X\ [2A-X	.	.	ff	[2c\ [2f	-rża-	span-	ff
!LO:TX:b:t=Tam. tam.	!	!	!	!	!	!	!	!	!	!	!
8AA-X'\L	.	.	.	.	.	.	.	.	.	.	.
8DD-'\J	.	.	.	.	.	.	.	.	.	.	.
*v	*v	*	*	*	*	*	*	*	*	*	*
=56	=56	=56	=56	=56	=56	=56	=56	=56	=56	=56
!	!	!LO:HP:t=dim.	!	!	!	!	!	!	!	!
4AA-X\	2F</_> 2A-<_> 2c_ 2f_	>	2D-\_ 2A-_	.	.	.	2c\_ 2f_	.	.	.
8DD-X'<\L	.	.	.	.	.	.	.	.	.	.
8AA-'<\J	.	.	.	.	.	.	.	.	.	.
!!LO:LB:g=original	!	!	!	!	!	!	!	!	!	!
=57	=57	=57	=57	=57	=57	=57	=57	=57	=57	=57
4DD-X\	2F</_> 2A-<_> 2c] 2f_	.	2D-\_ 2A-_	.	.	.	(2c\] 2f_	.	.	.
8AA-X'<\L	.	.	.	.	.	.	.	.	.	.
8DD-'<\J	.	.	.	.	.	.	.	.	.	.
=58	=58	=58	=58	=58	=58	=58	=58	=58	=58	=58
*	*^	*	*	*	*	*	*	*	*	*
4AA-X\	2F</] 2A-<] 2f]	(4d-X\	.	4.D-\] 4.A-]	.	.	.	4.d-X\) 4.f]	-ło	-de,	.
8DD-X'/L	.	4c\)	pp	.	.	.	.	.	.	.	.
!	!	!	!	!	!	!	!LO:DY:a	!	!	!	!LO:DY:a
8AA-'/J	.	.	.	8D-X\ 8A-X	.	.	pp	8c\ 8f	Za-	Che	pp
*	*v	*v	*	*	*	*	*	*	*	*	*
=59	=59	=59	=59	=59	=59	=59	=59	=59	=59	=59
*	*	*	*^	*	*	*	*	*	*	*
!	!	!	!	!	!	!	!LO:DY:a	!	!	!	!LO:DY:a
4DDn/ 4GG 4D	4G/ 4B 4f	.	4Dn/ 4G	4ryy	.	.	p	4Bn\ 4f	-le-	l’o-	p
8G\L 8d	8b\L 8ff	.	8D/	8D\	.	.	.	8A\ 8f	-dwie	-ra an-	.
8G\J 8d	8b\J 8ff	.	8D/ 8G	8ryy	.	.	.	8G\ 8f	A-	-nun-	.
*	*	*	*v	*v	*	*	*	*	*	*	*
=60	=60	=60	=60	=60	=60	=60	=60	=60	=60	=60
4EE/ 4GG 4C	4g\ 4cc 4ee	.	4E\ 4G	.	.	.	4G\ 4e	-ra-	-zia-	.
8G\L 8c 8e	8g\L 8cc 8ee	.	8E\ 8G	.	.	.	8c\ 8e	-ny	-va	.
8G\J 8c 8e	8g\J 8cc 8ee	.	8E\ 8G	.	.	.	8c\ 8e	po-	del	.
=61	=61	=61	=61	=61	=61	=61	=61	=61	=61	=61
*	*	*	*	*	*	*	*^	*	*	*
4DD/ 4FF 4AA	4a\ 4cc 4dd	.	4F\ 4A	.	.	.	4d/	4d\	-wśćią-	sor-	.
8c\L 8d	8f/L 8a 8cc 8dd	.	8F\ 8A	.	.	.	8c/	8c\	-ga	-ger	.
8c\J 8d	8f/J 8a 8cc 8dd	.	8F\ 8A	.	.	.	8c\ 8d	8ryy	je	del	.
=62	=62	=62	=62	=62	=62	=62	=62	=62	=62	=62	=62
*	*	*	*^	*	*	*	*	*	*	*	*
4GG/ 4G	4.e/ 4.g 4.b 4.ee	.	(4G\ 4B	4ryy	.	.	.	4.e/	(4B\	dłoń.	sol.	.
8GG/L	.	.	8G/)	8G\	.	.	.	.	8G\)	.	.	.
!	!	!	!	!	!	!	!LO:DY:a	!	!	!	!	!LO:DY:a
8GGG/J 8GG	8g\ 8b 8dd	.	8G/	8G\	.	.	f	8B\ 8d	8ryy	Już	Del-	f
*	*	*	*v	*v	*	*	*	*	*	*	*	*
*	*	*	*	*	*	*	*v	*v	*	*	*
=63	=63	=63	=63	=63	=63	=63	=63	=63	=63	=63
4FFF#X/ 4FF#X	4d/ 4a 4dd	ff	4F#X\ 4d	.	.	.	4A\ 4d	Sur-	-l’a-	.
8D\L	8c/L 8d 8a	.	8F#\ 8c	.	.	.	8d\ 8a	-ja	-stro	.
8D\J	8c/J 8d 8a	.	8F#\ 8c	.	.	.	8d\ 8a	przy-	del	.
!!LO:LB:g=original	!	!	!	!	!	!	!	!	!	!
=64	=64	=64	=64	=64	=64	=64	=64	=64	=64	=64
4GGG/ 4GG	(>4B-X^/ 4d 4a	.	4G\ 4B-X	.	.	.	4d\ 4a	-świe-	gior-	.
8D\L	8B-/L) 8d 8g	.	8G\ 8B-	.	.	.	8d\ 8g	-ca	-no	.
8D\J	8B-/J 8d 8g	.	8G\ 8B-	.	.	.	8d\ 8g	po-	le	.
=65	=65	=65	=65	=65	=65	=65	=65	=65	=65	=65
*	*	*	*^	*	*	*	*	*	*	*
4AAA/ 4AA	4A^/ 4d 4g	.	4A/	4A\	.	.	.	4d\ 4g	-cho-	fa-	.
8D\L	8A/L 8d 8fn	.	8A/	8A\	.	.	.	8d\ 8fn	-dnią	-ci am-	.
8D\J	8A/J 8d 8f	.	8A/	8A\	.	.	.	8d\ 8f	wspa-	-mi-	.
=66	=66	=66	=66	=66	=66	=66	=66	=66	=66	=66	=66
4BBB-X/ 4BB-X	4B-X/ 4d 4f	<	4B-X/	4B-\	.	.	.	4d\ 4f	-nia-	-ran-	.
8BB-/L	8B-/L 8c 8e-X	.	8B-/	8B-\	.	.	.	8c\ 8e-X	-łą!	-de	.
8BBB-/J 8BB-	8B-/J 8d 8f	[[	8B-/	8B-\	.	.	.	8d\ 8f	Już	Splen-	.
*	*	*	*v	*v	*	*	*	*	*	*	*
=67	=67	=67	=67	=67	=67	=67	=67	=67	=67	=67
*^	*	*	*	*	*	*	*	*	*	*
!	!	!LO:TX:a:t=Tam. tam.	!	!	!	!	!LO:DY:a	!	!	!	!LO:DY:a
4EE-X/	2EEE-X\ 2EE-	[2G</ [2B-X< [2d [2g	.	[2E-X\ [2B-X	.	.	ff	[2d\ [2g	dzień!	-dor	ff
8BB-X'\L	.	.	.	.	.	.	.	.	.	.	.
8EE-'\J	.	.	.	.	.	.	.	.	.	.	.
*v	*v	*	*	*	*	*	*	*	*	*	*
=68	=68	=68	=68	=68	=68	=68	=68	=68	=68	=68
4BB-X\	2G</_> 2B-<_> (>2d] 2g_	.	2E-X\_ 2B-X_	.	.	.	(2d\] 2g_<	.	.	.
8EE-X'<\L	.	.	.	.	.	.	.	.	.	.
8BB-'<\J	.	.	.	.	.	.	.	.	.	.
=69	=69	=69	=69	=69	=69	=69	=69	=69	=69	=69
4EE-X\	2G</] 2B-<_> 2f) 2g_	.	2E-X\_ 2B-X_	.	.	.	(2f\) 2g_<	.	.	.
8BB-X'<\L	.	.	.	.	.	.	.	.	.	.
8EE-'<\J	.	.	.	.	.	.	.	.	.	.
=70	=70	=70	=70	=70	=70	=70	=70	=70	=70	=70
*	*^	*	*	*	*	*	*	*	*	*
4BB-X\	2G</ 2B-<] 2g]	(4e-X\	.	4.E-X\] 4.B-X]	.	.	.	4.e-X\) 4.g]	.	.	.
8EE-X'<\L	.	4d\)	.	.	.	.	.	.	.	.	.
!	!	!	!	!	!	!	!LO:DY:a	!	!	!	!LO:DY:a
8BB-'<\J	.	.	.	8E-\ 8B-	.	.	pp	8d\ 8g	Ro-	lar-	pp
*	*v	*v	*	*	*	*	*	*	*	*	*
!!LO:LB:g=original	!	!	!	!	!	!	!	!	!	!
=71	=71	=71	=71	=71	=71	=71	=71	=71	=71	=71
*	*	*	*^	*	*	*	*	*	*	*
4EEn/ 4AA	4A</ 4c#X 4g	.	4.A/	4En\	.	.	.	4c#X\ 4g	-śli-	-gis-	.
8FF/L 8AA	8A</L 8d 8f	.	.	8F\	.	.	.	8d\ 8f	-nom	-con	.
8DD'/J 8AA	8A</J 8d 8f	.	8D\ 8A	8ryy	.	.	.	8d\ 8f	po-	ric-	.
=72	=72	=72	=72	=72	=72	=72	=72	=72	=72	=72	=72
(8BBBn/L 8GG	4G</ 4d 4f	.	4.G/	8BBn\L	.	.	.	4d\ 4f	-wra-	-chez-	.
8GGG/)	.	.	.	8GG\J	.	.	.	.	.	.	.
8CC'/	8G</L 8cn 8e	.	.	8C\	.	.	.	8cn\ 8e	-ca	-ze	.
8AAA/J 8AA	8A</J 8c 8e	.	8A/	8AA\	.	.	.	8c\ 8e	i	al-	.
*	*	*	*v	*v	*	*	*	*	*	*	*
=73	=73	=73	=73	=73	=73	=73	=73	=73	=73	=73
4FF/ 4AA 4D	4A/ 4c 4a	.	2F\ 2A	.	.	.	2c\ 2d	świe-	-l’in-	.
8FF/L 8D	8A/L 8c 8g	.	.	.	.	.	.	.	.	.
8FF/J 8D	8A/J 8c 8f	.	.	.	.	.	.	.	.	.
=74	=74	=74	=74	=74	=74	=74	=74	=74	=74	=74
*	*^	*	*^	*	*	*	*	*	*	*
4GG/ 4D	(8.f/L	4B\	.	4.GG\ 4.G	4.G/	.	.	.	4.B\ 4.d	-żość	-di-	.
.	32g/LL	.	.	.	.	.	.	.	.	.	.	.
.	32f/JJJ)	.	.	.	.	.	.	.	.	.	.	.
8GG/L 8G	8B/L 8e	4ryy	.	.	.	.	.	.	.	.	.	.
8GG/J 8F	8B/J 8d	.	.	8G/	8GG\ 8G	.	.	.	8B\ 8d	i	-co	.
*	*v	*v	*	*	*	*	*	*	*	*	*	*
=75	=75	=75	=75	=75	=75	=75	=75	=75	=75	=75	=75
*^	*	*	*	*	*	*	*	*^	*	*	*
4CCC^^/	4ryy	8E/ 8c	pp	[2C/	[2C\	.	.	.	[2c/	[2c\	woń.	suol	.
!	!	!LO:TX:a:t=Ob.	!	!	!	!	!	!	!	!	!	!	!
.	.	16ee'\LL	.	.	.	.	.	.	.	.	.	.	.
.	.	16gg'\JJ	.	.	.	.	.	.	.	.	.	.	.
4E/ 4G 4c	8C\L	(16aa\LL	.	.	.	.	.	.	.	.	.	.	.
.	.	16gg\)	.	.	.	.	.	.	.	.	.	.	.
.	8C\J	16ee'\	.	.	.	.	.	.	.	.	.	.	.
.	.	16gg'\JJ	.	.	.	.	.	.	.	.	.	.	.
=76	=76	=76	=76	=76	=76	=76	=76	=76	=76	=76	=76	=76	=76
2F/ 2A 2c	4C\	8aa'\	.	2C/_	2C\_	.	.	.	2c/_	2c\_	.	.	.
*	*	*8va	*	*	*	*	*	*	*	*	*	*	*
!	!	!LO:TX:a:t=Fl.	!	!	!	!	!	!	!	!	!	!	!
.	.	16aa'\LL	.	.	.	.	.	.	.	.	.	.	.
.	.	16ccc'\JJ	.	.	.	.	.	.	.	.	.	.	.
.	8C\L	(16ddd\LL	.	.	.	.	.	.	.	.	.	.	.
.	.	16ccc\)	.	.	.	.	.	.	.	.	.	.	.
.	8C\J	16aa'\	.	.	.	.	.	.	.	.	.	.	.
.	.	16ccc'\JJ	.	.	.	.	.	.	.	.	.	.	.
!!LO:PB:g=original	!	!	!	!	!	!	!	!	!	!	!	!	!
=77	=77	=77	=77	=77	=77	=77	=77	=77	=77	=77	=77	=77	=77
2E/ 2G	4C\	8eee'\	.	4C/]	4C\]	.	.	.	4c/]	4c\]	.	.	.
!	!	!LO:TX:b:t=Picc.	!	!	!	!	!	!	!	!	!	!	!
.	.	16ggg'\LL	.	.	.	.	.	.	.	.	.	.	.
.	.	16eee'\JJ	.	.	.	.	.	.	.	.	.	.	.
.	8C\L	(16ddd\LL	.	8rD	4ryy	.	.	.	4ryy	4ryy	.	.	.
.	.	16ccc\)	.	.	.	.	.	.	.	.	.	.	.
.	8C\J	16bb'\	.	8C/	.	O	O	.	.	.	.	.	.
.	.	16aa'\JJ	.	.	.	.	.	.	.	.	.	.	.
*	*	*	*	*v	*v	*	*	*	*	*	*	*	*
*v	*v	*	*	*	*	*	*	*v	*v	*	*	*
*	*X8va	*	*	*	*	*	*	*	*	*
=78	=78	=78	=78	=78	=78	=78	=78	=78	=78	=78
4CC/ 4GG 4BB	8g\ 8gg	.	4BB/	Su-	Su-	.	2r	.	.	.
!	!LO:TX:b:t=Ob.	!	!	!	!	!	!	!	!	!
.	16dd'\LL	.	.	.	.	.	.	.	.	.
.	16ff'\JJ	.	.	.	.	.	.	.	.	.
8CC/L 8AA	(16gg\LL	.	8AA/	-rja	-ria	.	.	.	.	.
.	16ff\)	.	.	.	.	.	.	.	.	.
8CC/J 8GG	16dd'\	.	8GG/	wspa-	pos-	.	.	.	.	.
.	16ff'\JJ	.	.	.	.	.	.	.	.	.
=79	=79	=79	=79	=79	=79	=79	=79	=79	=79	=79
*^	*	*	*	*	*	*	*	*	*	*
(4.GG/	2CC\	8cc'\ 8ee	.	(4.GG/	-nia-	-sen-	.	2r	.	.	.
.	.	16ee'\LL	.	.	.	.	.	.	.	.	.
.	.	16gg'\JJ	.	.	.	.	.	.	.	.	.
.	.	(16aa\LL	.	.	.	.	.	.	.	.	.
.	.	16gg\)	.	.	.	.	.	.	.	.	.
8C/)	.	16ee'\	.	8C/)	.	.	.	.	.	.	.
.	.	16gg'\JJ	.	.	.	.	.	.	.	.	.
*v	*v	*	*	*	*	*	*	*	*	*	*
=80	=80	=80	=80	=80	=80	=80	=80	=80	=80	=80
2C\ 2D#X 2F#X	8aa\	.	[2C/	-ły!	-te,	.	2r	.	.	.
*	*8va	*	*	*	*	*	*	*	*	*
!	!LO:TX:a:t=Fl.	!	!	!	!	!	!	!	!	!
.	16aa'\LL	.	.	.	.	.	.	.	.	.
.	16ccc'\JJ	.	.	.	.	.	.	.	.	.
.	(16ddd\LL	.	.	.	.	.	.	.	.	.
.	16ccc\)	.	.	.	.	.	.	.	.	.
.	16aa'\	.	.	.	.	.	.	.	.	.
.	16ccc'\JJ	.	.	.	.	.	.	.	.	.
=81	=81	=81	=81	=81	=81	=81	=81	=81	=81	=81
*^	*	*	*	*	*	*	*^	*	*	*
4rc	2C\ 2E 2G	8eee\	.	4C/]	.	.	.	4rB	4.ryy	.	.	.
!	!	!LO:TX:b:t=Picc.	!	!	!	!	!	!	!	!	!	!
.	.	16ggg'\LL	.	.	.	.	.	.	.	.	.	.
.	.	16eee'\JJ	.	.	.	.	.	.	.	.	.	.
8rc	.	(16ddd/LL	.	4r	.	.	.	8rB	.	.	.	.
.	.	16ccc/)	.	.	.	.	.	.	.	.	.	.
!	!	!	!	!	!	!	!	!	!	!	!	!LO:DY:a
8c/	.	16bb'/	.	.	.	.	.	8c/	8c\	O	O	p
.	.	16aa'/JJ	.	.	.	.	.	.	.	.	.	.
*v	*v	*	*	*	*	*	*	*	*	*	*	*
!!LO:LB:g=original	!	!	!	!	!	!	!	!	!	!	!
=82	=82	=82	=82	=82	=82	=82	=82	=82	=82	=82	=82
4C\ 4D 4F 4B	8gg/	.	2r	.	.	.	4B/	4B\	Su-	Su-	.
.	16dd'/LL	.	.	.	.	.	.	.	.	.	.
!	!LO:TX:a:t=Ob.	!	!	!	!	!	!	!	!	!	!
.	16ff'/JJ	.	.	.	.	.	.	.	.	.	.
8C\L 8D 8F 8A	(16gg/LL	.	.	.	.	.	8A/	8A\	-rja	-ria	.
.	16ff/)	.	.	.	.	.	.	.	.	.	.
8C\J 8D 8F 8G	16dd'/	.	.	.	.	.	8G/	8G\	wspa-	pos-	.
.	16ff'/JJ	.	.	.	.	.	.	.	.	.	.
=83	=83	=83	=83	=83	=83	=83	=83	=83	=83	=83	=83
4C\ 4E 4G	8ee/	.	4r	.	.	.	4G/	4G\	-nia-	-sen-	.
!	!LO:TX:b:t=Picc.	!	!	!	!	!	!	!	!	!	!
.	16ggg'\LL	.	.	.	.	.	.	.	.	.	.
.	16eee'\JJ	.	.	.	.	.	.	.	.	.	.
8C\L 8E 8G 8c	(16ddd\LL	.	8r	.	.	.	8c/	8c\	-ły!	-te!	.
.	16ccc\)	.	.	.	.	.	.	.	.	.	.
8C\J 8E 8G 8c	16bb'\	.	8C/	.	.	.	8c/	8c\	Ty	Deh i-	.
.	16aa'\JJ	.	.	.	.	.	.	.	.	.	.
=84	=84	=84	=84	=84	=84	=84	=84	=84	=84	=84	=84
4C\ 4F 4d	8gg/	.	4BB/	.	.	.	4d/	4d\	ciesz	-spi-	.
.	16dd'/LL	.	.	.	.	.	.	.	.	.	.
!	!LO:TX:a:t=Ob.	!	!	!	!	!	!	!	!	!	!
.	16ff'/JJ	.	.	.	.	.	.	.	.	.	.
8C\L 8A 8c	(16gg/LL	.	8AA/	.	.	.	8c/	8c\	nas,	-ra-	.
.	16ff/)	.	.	.	.	.	.	.	.	.	.
8B\J 8d	16dd'/	.	8GG/	.	.	.	8d/	8d\	ty	-ci	.
.	16ff'/JJ	.	.	.	.	.	.	.	.	.	.
=85	=85	=85	=85	=85	=85	=85	=85	=85	=85	=85	=85
4C\ 4G 4e	8ee/	.	[2GG/	.	.	.	(4e/	4e\	pieść.	tu!	.
.	16gg/LL	.	.	.	.	.	.	.	.	.	.
!	!LO:TX:b:t=Fl.	!	!	!	!	!	!	!	!	!	!
.	16ee/JJ	.	.	.	.	.	.	.	.	.	.
8C\L 8E 8c	(16dd/LL	.	.	.	.	.	8c/)	8c\	.	.	.
.	16cc/)	.	.	.	.	.	.	.	.	.	.
8C\J 8E 8c	16b'/	.	.	.	.	.	8c/	8c\	Do	O	.
.	16a'/JJ	.	.	.	.	.	.	.	.	.	.
=86	=86	=86	=86	=86	=86	=86	=86	=86	=86	=86	=86
4C\ 4D 4F 4B	8g/	.	4GG/]	.	.	.	(4B/	4B\	szczę-	nu-	.
.	16ddd'\LL	.	.	.	.	.	.	.	.	.	.
!	!LO:TX:b:t=Picc.	!	!	!	!	!	!	!	!	!	!
.	16fff'\JJ	.	.	.	.	.	.	.	.	.	.
8C\L 8F 8A	(16aaa\LL	.	4r	.	.	.	8A/)	8A\	-śćia,	-me	.
.	16ggg\)	.	.	.	.	.	.	.	.	.	.
8C\J 8F 8G	16ddd'\	.	.	.	.	.	8G/	8G\	do	splen-	.
.	16ggg'\JJ	.	.	.	.	.	.	.	.	.	.
!!LO:LB:g=original	!	!	!	!	!	!	!	!	!	!	!
=87	=87	=87	=87	=87	=87	=87	=87	=87	=87	=87	=87
*	*	*	*^	*	*	*	*	*	*	*	*
4C\ 4E 4G	8ggg\	.	4rD	4ryy	.	.	.	4G/	4G\	chwa-	-den-	.
.	16ee'/LL	.	.	.	.	.	.	.	.	.	.	.
!	!LO:TX:a:t=Ob.	!	!	!	!	!	!	!	!	!	!	!
.	16dd'/JJ	.	.	.	.	.	.	.	.	.	.	.
.	8qdd/	.	.	.	.	.	.	.	.	.	.	.
8C'\L 8E 8G 8c	(16cc/LL	.	8rD	8ryy	.	.	.	8c/	8c\	-ły	-te	.
.	16b/)	.	.	.	.	.	.	.	.	.	.	.
8C'\J 8E 8G 8c	16cc'/	.	8C/	8C\	.	.	.	8c/	8c\	Racz	c’in-	.
.	16ee'/JJ	.	.	.	.	.	.	.	.	.	.	.
*	*	*	*	*	*	*	*	*v	*v	*	*	*
=88	=88	=88	=88	=88	=88	=88	=88	=88	=88	=88	=88
2G^\ 2B 2d	8gg'/	.	2BB/	2BB\	.	.	.	2G\ 2d	świa-	-fon-	.
!	!LO:TX:b:t=Picc.	!	!	!	!	!	!	!	!	!	!
.	16ddd'\LL	.	.	.	.	.	.	.	.	.	.
.	16ggg'\JJ	.	.	.	.	.	.	.	.	.	.
.	(16aaa\LL	.	.	.	.	.	.	.	.	.	.
.	16ggg\)	.	.	.	.	.	.	.	.	.	.
.	16ddd'\	.	.	.	.	.	.	.	.	.	.
.	16ggg'\JJ	.	.	.	.	.	.	.	.	.	.
*	*	*	*v	*v	*	*	*	*	*	*	*
=89	=89	=89	=89	=89	=89	=89	=89	=89	=89	=89
4E^\ 4G 4B 4e	(16aa/LL	.	4BB/ 4E	.	.	.	4G\ 4e	-tło	-di	.
.	16gg/)	.	.	.	.	.	.	.	.	.
.	16ee'/	.	.	.	.	.	.	.	.	.
.	16gg'/JJ	.	.	.	.	.	.	.	.	.
4G^\ 4B	(16gg/LL	.	4GG/ 4D	.	.	.	4F/ 4B	nam	vir-	.
.	16ff/)	.	.	.	.	.	.	.	.	.
.	16dd'/	.	.	.	.	.	.	.	.	.
.	16b'/JJ	.	.	.	.	.	.	.	.	.
=90	=90	=90	=90	=90	=90	=90	=90	=90	=90	=90
*^	*	*	*	*	*	*	*	*	*	*
4c/	2C\ 2c	8cc/	.	[2GG/ [2C	.	.	.	[2E/ [2c	nieść!	-tù!	.
.	.	16cc/LL	.	.	.	.	.	.	.	.	.
.	.	16ee/JJ	.	.	.	.	.	.	.	.	.
8E/L 8G	.	(16gg\LL	.	.	.	.	.	.	.	.	.
.	.	16ccc\)	.	.	.	.	.	.	.	.	.
8E/J 8G	.	16eee\	.	.	.	.	.	.	.	.	.
.	.	16ggg\JJ	.	.	.	.	.	.	.	.	.
=91	=91	=91	=91	=91	=91	=91	=91	=91	=91	=91	=91
4E/ 4G	2C\ 2c	8cccc\L	.	2GG/_ 2C_	.	.	.	2E/_ 2c_	.	.	.
.	.	16aaa'\L	.	.	.	.	.	.	.	.	.
.	.	16ggg'\JJ	.	.	.	.	.	.	.	.	.
8E/L 8G	.	(16eee\LL	.	.	.	.	.	.	.	.	.
.	.	16ccc\)	.	.	.	.	.	.	.	.	.
8E/J 8G	.	16gg'\	.	.	.	.	.	.	.	.	.
.	.	16ee'\JJ	.	.	.	.	.	.	.	.	.
!!LO:LB:g=original	!	!	!	!	!	!	!	!	!	!	!
=92	=92	=92	=92	=92	=92	=92	=92	=92	=92	=92	=92
4E/ 4G	2C\ 2c	8cc/	.	2GG/_ 2C_	.	.	.	2E/_ 2c_	.	.	.
.	.	16cc/LL	.	.	.	.	.	.	.	.	.
.	.	16ee/JJ	.	.	.	.	.	.	.	.	.
8E/L 8G	.	16gg\LL	.	.	.	.	.	.	.	.	.
.	.	16ccc\	.	.	.	.	.	.	.	.	.
8E/J 8G	.	16eee\	.	.	.	.	.	.	.	.	.
.	.	16ggg\JJ	.	.	.	.	.	.	.	.	.
=93	=93	=93	=93	=93	=93	=93	=93	=93	=93	=93	=93
4E/ 4G	2C\ 2c	8cccc\L	.	2GG/_ 2C_	.	.	.	2E/_ 2c_	.	.	.
.	.	16aaa'\L	.	.	.	.	.	.	.	.	.
.	.	16ggg'\JJ	.	.	.	.	.	.	.	.	.
8E/L 8G	.	(16eee\LL	.	.	.	.	.	.	.	.	.
.	.	16ccc\)	.	.	.	.	.	.	.	.	.
8E/J 8G	.	16gg'\	.	.	.	.	.	.	.	.	.
.	.	16ee'\JJ	.	.	.	.	.	.	.	.	.
*v	*v	*	*	*	*	*	*	*	*	*	*
*	*X8va	*	*	*	*	*	*	*	*	*
=94	=94	=94	=94	=94	=94	=94	=94	=94	=94	=94
4C\ 4E 4G 4c	4cc\	.	4GG/] 4C]	.	.	.	4E/] 4c]	.	.	.
8r	8r	.	4r	.	.	.	4r	.	.	.
*	*clefF4	*	*	*	*	*	*	*	*	*
8C/	8c\	pp	.	.	.	.	.	.	.	.
=95	=95	=95	=95	=95	=95	=95	=95	=95	=95	=95
*^	*	*	*	*	*	*	*	*	*	*
(4BB/	[2CC\	(4B\	.	2r	.	.	.	2r	.	.	.
8AA'/L)	.	8A'\L)	.	.	.	.	.	.	.	.	.
8GG'/J	.	8G'\J	.	.	.	.	.	.	.	.	.
=96	=96	=96	=96	=96	=96	=96	=96	=96	=96	=96	=96
(4GG/	2CC\]	(4G\	.	2r	.	.	.	2r	.	.	.
8FF'/L)	.	8F'\L)	.	.	.	.	.	.	.	.	.
8EE'/J	.	8E'\J	.	.	.	.	.	.	.	.	.
*v	*v	*	*	*	*	*	*	*	*	*	*
=97	=97	=97	=97	=97	=97	=97	=97	=97	=97	=97
(4EE/	(<4E\	.	2r	.	.	.	2r	.	.	.
8.DD/L	8.D/L	.	.	.	.	.	.	.	.	.
16CC/Jk)	16C/Jk)	.	.	.	.	.	.	.	.	.
=||	=||	=||	=||	=||	=||	=||	=||	=||	=||	=||
*-	*-	*-	*-	*-	*-	*-	*-	*-	*-	*-
!!!system-decoration: [(s1,s2)]{(s3,s4)}
!!!RDF**kern: > = above
!!!RDF**kern: < = below
!!!ENC: Arkadiusz Malec
!!!END: 3-09-2022
!!!ENC: Natalia Wrzos
!!!END: 2022-10-06
!!!YEC: Copyright 2022 Narodowy Instytut Fryderyka Chopina (https://polishscores.org)
!!!YEM: License CC-BY-4.0 (https://creativecommons.org/licenses/by/4.0)
